avogadro/qtplugins/templatetool/centers/6-tpr.svg

<svg xmlns="http://www.w3.org/2000/svg" xmlns:xlink="http://www.w3.org/1999/xlink" width="34" height="30" viewBox="0 0 34 30" style="background-color:#ffffff00" version="1.1"><path fill="#000" stroke="none" d="M 3988.2,2018.98 L 3999.57,2022.9 L 3907.02,2291.16 L 3900,2293.07 L 3900,2274.63 L 3988.2,2018.98 Z" transform="matrix(0.05 0 0 0.05 -178 -98)"/><path fill="#000" stroke="none" d="M 4186.26,2338.96 L 4170.69,2396.9 L 4159.39,2392.61 L 4174.33,2337 L 4186.26,2338.96 Z" transform="matrix(0.05 0 0 0.05 -178 -98)"/><path fill="#000" stroke="none" d="M 4130.16,2329.77 L 4117.54,2376.72 L 4106.24,2372.42 L 4118.23,2327.82 L 4130.16,2329.77 Z" transform="matrix(0.05 0 0 0.05 -178 -98)"/><path fill="#000" stroke="none" d="M 4074.05,2320.59 L 4064.39,2356.54 L 4053.09,2352.24 L 4062.12,2318.63 L 4074.05,2320.59 Z" transform="matrix(0.05 0 0 0.05 -178 -98)"/><path fill="#000" stroke="none" d="M 4017.95,2311.4 L 4011.24,2336.35 L 3999.94,2332.06 L 4006.01,2309.45 L 4017.95,2311.4 Z" transform="matrix(0.05 0 0 0.05 -178 -98)"/><path fill="#000" stroke="none" d="M 3961.84,2302.21 L 3958.09,2316.17 L 3946.79,2311.88 L 3949.91,2300.26 L 3961.84,2302.21 Z" transform="matrix(0.05 0 0 0.05 -178 -98)"/><path fill="#000" stroke="none" d="M 4124.84,2475.49 L 4082.41,2517.91 L 3900,2302.36 L 3900,2293.07 L 3907.02,2291.16 L 4124.84,2475.49 Z" transform="matrix(0.05 0 0 0.05 -178 -98)"/><path fill="#000" stroke="none" d="M 3900,2274.63 L 3900,2293.07 L 3892.98,2291.16 L 3800.43,2022.9 L 3811.8,2018.98 L 3900,2274.63 Z" transform="matrix(0.05 0 0 0.05 -178 -98)"/><path fill="#000" stroke="none" d="M 3850.09,2300.26 L 3853.21,2311.88 L 3841.91,2316.17 L 3838.16,2302.21 L 3850.09,2300.26 Z" transform="matrix(0.05 0 0 0.05 -178 -98)"/><path fill="#000" stroke="none" d="M 3793.99,2309.45 L 3800.06,2332.06 L 3788.76,2336.35 L 3782.05,2311.4 L 3793.99,2309.45 Z" transform="matrix(0.05 0 0 0.05 -178 -98)"/><path fill="#000" stroke="none" d="M 3737.88,2318.63 L 3746.91,2352.24 L 3735.61,2356.54 L 3725.95,2320.59 L 3737.88,2318.63 Z" transform="matrix(0.05 0 0 0.05 -178 -98)"/><path fill="#000" stroke="none" d="M 3681.77,2327.82 L 3693.76,2372.42 L 3682.46,2376.72 L 3669.84,2329.77 L 3681.77,2327.82 Z" transform="matrix(0.05 0 0 0.05 -178 -98)"/><path fill="#000" stroke="none" d="M 3625.67,2337 L 3640.61,2392.61 L 3629.31,2396.9 L 3613.74,2338.96 L 3625.67,2337 Z" transform="matrix(0.05 0 0 0.05 -178 -98)"/><path fill="#000" stroke="none" d="M 3892.98,2291.16 L 3900,2293.07 L 3900,2302.36 L 3717.59,2517.91 L 3675.16,2475.49 L 3892.98,2291.16 Z" transform="matrix(0.05 0 0 0.05 -178 -98)"/><path fill="#108080" stroke="none" d="M 3770.41,2293.07 A 129.586,129.586 0 1 0 4029.59,2293.07A 129.586,129.586 0 1 0 3770.41,2293.07Z" transform="matrix(0.05 0 0 0.05 -178 -98)"/><path fill="#1e8787" stroke="none" d="M 3771.92,2291.05 A 126.059,126.059 0 1 0 4024.03,2291.05A 126.059,126.059 0 1 0 3771.92,2291.05Z" transform="matrix(0.05 0 0 0.05 -178 -98)"/><path fill="#2c8f8f" stroke="none" d="M 3773.42,2289.03 A 122.531,122.531 0 1 0 4018.48,2289.03A 122.531,122.531 0 1 0 3773.42,2289.03Z" transform="matrix(0.05 0 0 0.05 -178 -98)"/><path fill="#3a9696" stroke="none" d="M 3774.92,2287 A 119.004,119.004 0 1 0 4012.93,2287A 119.004,119.004 0 1 0 3774.92,2287Z" transform="matrix(0.05 0 0 0.05 -178 -98)"/><path fill="#489d9d" stroke="none" d="M 3776.42,2284.98 A 115.477,115.477 0 1 0 4007.38,2284.98A 115.477,115.477 0 1 0 3776.42,2284.98Z" transform="matrix(0.05 0 0 0.05 -178 -98)"/><path fill="#54a4a4" stroke="none" d="M 3777.93,2282.95 A 111.949,111.949 0 1 0 4001.83,2282.95A 111.949,111.949 0 1 0 3777.93,2282.95Z" transform="matrix(0.05 0 0 0.05 -178 -98)"/><path fill="#61abab" stroke="none" d="M 3779.43,2280.93 A 108.422,108.422 0 1 0 3996.27,2280.93A 108.422,108.422 0 1 0 3779.43,2280.93Z" transform="matrix(0.05 0 0 0.05 -178 -98)"/><path fill="#6db1b1" stroke="none" d="M 3780.93,2278.9 A 104.895,104.895 0 1 0 3990.72,2278.9A 104.895,104.895 0 1 0 3780.93,2278.9Z" transform="matrix(0.05 0 0 0.05 -178 -98)"/><path fill="#78b7b7" stroke="none" d="M 3782.43,2276.88 A 101.367,101.367 0 1 0 3985.17,2276.88A 101.367,101.367 0 1 0 3782.43,2276.88Z" transform="matrix(0.05 0 0 0.05 -178 -98)"/><path fill="#83bdbd" stroke="none" d="M 3783.94,2274.85 A 97.8398,97.8398 0 1 0 3979.62,2274.85A 97.8398,97.8398 0 1 0 3783.94,2274.85Z" transform="matrix(0.05 0 0 0.05 -178 -98)"/><path fill="#8ec2c2" stroke="none" d="M 3785.44,2272.83 A 94.3125,94.3125 0 1 0 3974.06,2272.83A 94.3125,94.3125 0 1 0 3785.44,2272.83Z" transform="matrix(0.05 0 0 0.05 -178 -98)"/><path fill="#98c8c8" stroke="none" d="M 3786.94,2270.8 A 90.7852,90.7852 0 1 0 3968.51,2270.8A 90.7852,90.7852 0 1 0 3786.94,2270.8Z" transform="matrix(0.05 0 0 0.05 -178 -98)"/><path fill="#a1cdcd" stroke="none" d="M 3788.44,2268.78 A 87.2578,87.2578 0 1 0 3962.96,2268.78A 87.2578,87.2578 0 1 0 3788.44,2268.78Z" transform="matrix(0.05 0 0 0.05 -178 -98)"/><path fill="#aad2d2" stroke="none" d="M 3789.95,2266.75 A 83.7305,83.7305 0 1 0 3957.41,2266.75A 83.7305,83.7305 0 1 0 3789.95,2266.75Z" transform="matrix(0.05 0 0 0.05 -178 -98)"/><path fill="#b3d6d6" stroke="none" d="M 3791.45,2264.73 A 80.2031,80.2031 0 1 0 3951.86,2264.73A 80.2031,80.2031 0 1 0 3791.45,2264.73Z" transform="matrix(0.05 0 0 0.05 -178 -98)"/><path fill="#bbdbdb" stroke="none" d="M 3792.95,2262.7 A 76.6758,76.6758 0 1 0 3946.3,2262.7A 76.6758,76.6758 0 1 0 3792.95,2262.7Z" transform="matrix(0.05 0 0 0.05 -178 -98)"/><path fill="#c3dfdf" stroke="none" d="M 3794.45,2260.68 A 73.1484,73.1484 0 1 0 3940.75,2260.68A 73.1484,73.1484 0 1 0 3794.45,2260.68Z" transform="matrix(0.05 0 0 0.05 -178 -98)"/><path fill="#cae3e3" stroke="none" d="M 3795.96,2258.65 A 69.6211,69.6211 0 1 0 3935.2,2258.65A 69.6211,69.6211 0 1 0 3795.96,2258.65Z" transform="matrix(0.05 0 0 0.05 -178 -98)"/><path fill="#d1e6e6" stroke="none" d="M 3797.46,2256.63 A 66.0938,66.0938 0 1 0 3929.65,2256.63A 66.0938,66.0938 0 1 0 3797.46,2256.63Z" transform="matrix(0.05 0 0 0.05 -178 -98)"/><path fill="#d7eaea" stroke="none" d="M 3798.96,2254.6 A 62.5664,62.5664 0 1 0 3924.1,2254.6A 62.5664,62.5664 0 1 0 3798.96,2254.6Z" transform="matrix(0.05 0 0 0.05 -178 -98)"/><path fill="#ddeded" stroke="none" d="M 3800.47,2252.58 A 59.0391,59.0391 0 1 0 3918.54,2252.58A 59.0391,59.0391 0 1 0 3800.47,2252.58Z" transform="matrix(0.05 0 0 0.05 -178 -98)"/><path fill="#e2efef" stroke="none" d="M 3801.97,2250.55 A 55.5117,55.5117 0 1 0 3912.99,2250.55A 55.5117,55.5117 0 1 0 3801.97,2250.55Z" transform="matrix(0.05 0 0 0.05 -178 -98)"/><path fill="#e7f2f2" stroke="none" d="M 3803.47,2248.53 A 51.9844,51.9844 0 1 0 3907.44,2248.53A 51.9844,51.9844 0 1 0 3803.47,2248.53Z" transform="matrix(0.05 0 0 0.05 -178 -98)"/><path fill="#ecf4f4" stroke="none" d="M 3804.97,2246.5 A 48.457,48.457 0 1 0 3901.89,2246.5A 48.457,48.457 0 1 0 3804.97,2246.5Z" transform="matrix(0.05 0 0 0.05 -178 -98)"/><path fill="#f0f7f7" stroke="none" d="M 3806.48,2244.48 A 44.9297,44.9297 0 1 0 3896.33,2244.48A 44.9297,44.9297 0 1 0 3806.48,2244.48Z" transform="matrix(0.05 0 0 0.05 -178 -98)"/><path fill="#f3f8f8" stroke="none" d="M 3807.98,2242.46 A 41.4023,41.4023 0 1 0 3890.78,2242.46A 41.4023,41.4023 0 1 0 3807.98,2242.46Z" transform="matrix(0.05 0 0 0.05 -178 -98)"/><path fill="#f6fafa" stroke="none" d="M 3809.48,2240.43 A 37.875,37.875 0 1 0 3885.23,2240.43A 37.875,37.875 0 1 0 3809.48,2240.43Z" transform="matrix(0.05 0 0 0.05 -178 -98)"/><path fill="#f9fbfb" stroke="none" d="M 3810.98,2238.41 A 34.3477,34.3477 0 1 0 3879.68,2238.41A 34.3477,34.3477 0 1 0 3810.98,2238.41Z" transform="matrix(0.05 0 0 0.05 -178 -98)"/><path fill="#fbfdfd" stroke="none" d="M 3812.49,2236.38 A 30.8203,30.8203 0 1 0 3874.13,2236.38A 30.8203,30.8203 0 1 0 3812.49,2236.38Z" transform="matrix(0.05 0 0 0.05 -178 -98)"/><path fill="#fcfdfd" stroke="none" d="M 3813.99,2234.36 A 27.293,27.293 0 1 0 3868.57,2234.36A 27.293,27.293 0 1 0 3813.99,2234.36Z" transform="matrix(0.05 0 0 0.05 -178 -98)"/><path fill="#fefefe" stroke="none" d="M 3815.49,2232.33 A 23.7656,23.7656 0 1 0 3863.02,2232.33A 23.7656,23.7656 0 1 0 3815.49,2232.33Z" transform="matrix(0.05 0 0 0.05 -178 -98)"/><path fill="#fefefe" stroke="none" d="M 3816.99,2230.31 A 20.2383,20.2383 0 1 0 3857.47,2230.31A 20.2383,20.2383 0 1 0 3816.99,2230.31Z" transform="matrix(0.05 0 0 0.05 -178 -98)"/><path fill="none" stroke="#108080" stroke-width="12" d="M 3770.41,2293.07 A 129.586,129.586 0 1 0 4029.59,2293.07A 129.586,129.586 0 1 0 3770.41,2293.07Z" transform="matrix(0.05 0 0 0.05 -178 -98)"/></svg>

<svg height="30" viewBox="0 0 34 30" width="34" xmlns="http://www.w3.org/2000/svg"><g transform="matrix(.05 0 0 .05 -178 -98)"><path d="m3988.2 2018.98 11.37 3.92-92.55 268.26-7.02 1.91v-18.44z"/><path d="m4186.26 2338.96-15.57 57.94-11.3-4.29 14.94-55.61z"/><path d="m4130.16 2329.77-12.62 46.95-11.3-4.3 11.99-44.6z"/><path d="m4074.05 2320.59-9.66 35.95-11.3-4.3 9.03-33.61z"/><path d="m4017.95 2311.4-6.71 24.95-11.3-4.29 6.07-22.61z"/><path d="m3961.84 2302.21-3.75 13.96-11.3-4.29 3.12-11.62z"/><path d="m4124.84 2475.49-42.43 42.42-182.41-215.55v-9.29l7.02-1.91z"/><path d="m3900 2274.63v18.44l-7.02-1.91-92.55-268.26 11.37-3.92z"/><path d="m3850.09 2300.26 3.12 11.62-11.3 4.29-3.75-13.96z"/><path d="m3793.99 2309.45 6.07 22.61-11.3 4.29-6.71-24.95z"/><path d="m3737.88 2318.63 9.03 33.61-11.3 4.3-9.66-35.95z"/><path d="m3681.77 2327.82 11.99 44.6-11.3 4.3-12.62-46.95z"/><path d="m3625.67 2337 14.94 55.61-11.3 4.29-15.57-57.94z"/><path d="m3892.98 2291.16 7.02 1.91v9.29l-182.41 215.55-42.43-42.42z"/><path d="m3770.41 2293.07a129.586 129.586 0 1 0 259.18 0 129.586 129.586 0 1 0 -259.18 0z" fill="#108080"/><path d="m3771.92 2291.05a126.059 126.059 0 1 0 252.11 0 126.059 126.059 0 1 0 -252.11 0z" fill="#1e8787"/><path d="m3773.42 2289.03a122.531 122.531 0 1 0 245.06 0 122.531 122.531 0 1 0 -245.06 0z" fill="#2c8f8f"/><path d="m3774.92 2287a119.004 119.004 0 1 0 238.01 0 119.004 119.004 0 1 0 -238.01 0z" fill="#3a9696"/><path d="m3776.42 2284.98a115.477 115.477 0 1 0 230.96 0 115.477 115.477 0 1 0 -230.96 0z" fill="#489d9d"/><path d="m3777.93 2282.95a111.949 111.949 0 1 0 223.9 0 111.949 111.949 0 1 0 -223.9 0z" fill="#54a4a4"/><path d="m3779.43 2280.93a108.422 108.422 0 1 0 216.84 0 108.422 108.422 0 1 0 -216.84 0z" fill="#61abab"/><path d="m3780.93 2278.9a104.895 104.895 0 1 0 209.79 0 104.895 104.895 0 1 0 -209.79 0z" fill="#6db1b1"/><path d="m3782.43 2276.88a101.367 101.367 0 1 0 202.74 0 101.367 101.367 0 1 0 -202.74 0z" fill="#78b7b7"/><path d="m3783.94 2274.85a97.84 97.84 0 1 0 195.68 0 97.84 97.84 0 1 0 -195.68 0z" fill="#83bdbd"/><path d="m3785.44 2272.83a94.313 94.313 0 1 0 188.62 0 94.313 94.313 0 1 0 -188.62 0z" fill="#8ec2c2"/><path d="m3786.94 2270.8a90.785 90.785 0 1 0 181.57 0 90.785 90.785 0 1 0 -181.57 0z" fill="#98c8c8"/><path d="m3788.44 2268.78a87.258 87.258 0 1 0 174.52 0 87.258 87.258 0 1 0 -174.52 0z" fill="#a1cdcd"/><path d="m3789.95 2266.75a83.731 83.731 0 1 0 167.46 0 83.731 83.731 0 1 0 -167.46 0z" fill="#aad2d2"/><path d="m3791.45 2264.73a80.203 80.203 0 1 0 160.41 0 80.203 80.203 0 1 0 -160.41 0z" fill="#b3d6d6"/><path d="m3792.95 2262.7a76.676 76.676 0 1 0 153.35 0 76.676 76.676 0 1 0 -153.35 0z" fill="#bbdbdb"/><path d="m3794.45 2260.68a73.148 73.148 0 1 0 146.3 0 73.148 73.148 0 1 0 -146.3 0z" fill="#c3dfdf"/><path d="m3795.96 2258.65a69.621 69.621 0 1 0 139.24 0 69.621 69.621 0 1 0 -139.24 0z" fill="#cae3e3"/><path d="m3797.46 2256.63a66.094 66.094 0 1 0 132.19 0 66.094 66.094 0 1 0 -132.19 0z" fill="#d1e6e6"/><path d="m3798.96 2254.6a62.566 62.566 0 1 0 125.14 0 62.566 62.566 0 1 0 -125.14 0z" fill="#d7eaea"/><path d="m3800.47 2252.58a59.039 59.039 0 1 0 118.07 0 59.039 59.039 0 1 0 -118.07 0z" fill="#ddeded"/><path d="m3801.97 2250.55a55.512 55.512 0 1 0 111.02 0 55.512 55.512 0 1 0 -111.02 0z" fill="#e2efef"/><path d="m3803.47 2248.53a51.984 51.984 0 1 0 103.97 0 51.984 51.984 0 1 0 -103.97 0z" fill="#e7f2f2"/><path d="m3804.97 2246.5a48.457 48.457 0 1 0 96.92 0 48.457 48.457 0 1 0 -96.92 0z" fill="#ecf4f4"/><path d="m3806.48 2244.48a44.93 44.93 0 1 0 89.85 0 44.93 44.93 0 1 0 -89.85 0z" fill="#f0f7f7"/><path d="m3807.98 2242.46a41.402 41.402 0 1 0 82.8 0 41.402 41.402 0 1 0 -82.8 0z" fill="#f3f8f8"/><path d="m3809.48 2240.43a37.875 37.875 0 1 0 75.75 0 37.875 37.875 0 1 0 -75.75 0z" fill="#f6fafa"/><path d="m3810.98 2238.41a34.348 34.348 0 1 0 68.7 0 34.348 34.348 0 1 0 -68.7 0z" fill="#f9fbfb"/><path d="m3812.49 2236.38a30.82 30.82 0 1 0 61.64 0 30.82 30.82 0 1 0 -61.64 0z" fill="#fbfdfd"/><path d="m3813.99 2234.36a27.293 27.293 0 1 0 54.58 0 27.293 27.293 0 1 0 -54.58 0z" fill="#fcfdfd"/><path d="m3815.49 2232.33a23.766 23.766 0 1 0 47.53 0 23.766 23.766 0 1 0 -47.53 0z" fill="#fefefe"/><path d="m3816.99 2230.31a20.238 20.238 0 1 0 40.48 0 20.238 20.238 0 1 0 -40.48 0z" fill="#fefefe"/><path d="m3770.41 2293.07a129.586 129.586 0 1 0 259.18 0 129.586 129.586 0 1 0 -259.18 0z" fill="none" stroke="#108080" stroke-width="12"/></g></svg>
